X: 190
Q: "With spirit."
M: 6/8
L: 1/8
K: Eb
b | B3- B2c | B2G E2C | (B,3- B,EG) | B2 "^>"c3 | "^>"B3- B FG | A3 "^>"c3 |
"^>"B3- B EF | G2z z2B | B3- B2c | B2G E2C | (B,3- B,EG) | B2 "^>"e3 |
"^>"d3- d "^>"G=A | B3- B "^>"=AB | G3 z2z | z2z z2G | A2A B2B |
c2c d2d | B3- B2G | B3 z2G | B2B =A2A | _A2A F2F |
c3- c2 B=A | B3 z2B | B2B c2c | d2d e2c | B3- B2G | B3 "^>"c3 |
"^>"d3-d BG | F3- F EC | B,3 z2z | z2z B3 | e3- e2B | e2B d2c |
e2B d2c | B3- B2G | E3 G3 | A2G A2B | c3 d3 | e6- | e3 z2 |]


